symbolic/actions/object-straighten-symbolic.svg

<svg version="1.1" viewBox="0 0 16 16" xmlns="http://www.w3.org/2000/svg">
 <defs>
  <style id="current-color-scheme" type="text/css">.ColorScheme-Text {
        color:#363636;
      }</style>
 </defs>
 <path class="ColorScheme-Text" d="m1 8v1h1v-1zm2 0v1h1v-1zm2 0v1h1v-1zm2 0v1h1v-1zm2 0v1h1v-1zm2 0v1h1v-1zm2 0v1h1v-1zm2 0v1h1v-1z" color="#363636" fill="currentColor"/>
 <path d="m10.711 1.1035c-0.13286 0.0081079-0.26661 0.03056-0.40039 0.066406l-7.7266 2.0703c-1.0702 0.28677-1.7008 1.379-1.4141 2.4492l0.35156 1.3105h1.0332l-0.41992-1.5703c-0.14339-0.53512 0.17191-1.0812 0.70703-1.2246l7.7285-2.0703c0.53512-0.14339 1.0812 0.17191 1.2246 0.70703l1.1133 4.1582h1.0352l-1.1836-4.416c-0.25093-0.93647-1.1188-1.5372-2.0488-1.4805zm-8.3867 8.8965 0.91602 3.416c0.28677 1.0702 1.379 1.7008 2.4492 1.4141l7.7266-2.0703c1.0702-0.28677 1.7008-1.379 1.4141-2.4492l-0.083984-0.31055h-1.0332l0.15234 0.57031c0.14339 0.53512-0.17191 1.0812-0.70703 1.2246l-7.7285 2.0703c-0.53512 0.14339-1.0812-0.17191-1.2246-0.70703l-0.8457-3.1582h-1.0352z" fill="#363636"/>
</svg>

<svg xmlns="http://www.w3.org/2000/svg" width="16" height="16" version="1.1">
 <path style="fill:#555555" d="M 11.88,1.22 2.03,2.97 C 1.05,3.14 1.22,4.12 1.22,4.12 L 1.72,7 H 13.91 L 13.03,2.03 C 12.86,1.05 11.88,1.22 11.88,1.22 Z M 2.25,10 2.97,13.97 C 3.14,14.95 4.13,14.78 4.13,14.78 L 13.97,13.03 C 13.97,13.03 14.96,12.86 14.78,11.87 L 14.44,10 Z"/>
 <path style="fill:#555555" d="M 1,8 V 9 H 2 V 8 Z M 3,8 V 9 H 4 V 8 Z M 5,8 V 9 H 6 V 8 Z M 7,8 V 9 H 8 V 8 Z M 9,8 V 9 H 10 V 8 Z M 11,8 V 9 H 12 V 8 Z M 13,8 V 9 H 14 V 8 Z M 15,8 V 9 H 16 V 8 Z"/>
</svg>
